X:1
T: The Mill of Newe
C:Alexander Walker
R:Strathspey
Q: 128
K:Em
M:4/4
L:1/16
|:D2|B,3E G3E B3E G3B|A,3D F3D AD3 F3D|B,3E G3E BE3 d3e|dB3 A3F EEE2 E2D2|
B,3E G3E B3E G3B|A,3D F3D AD3 F3D|B,3E G3E BE3 d3e|dB3 A3F EEE2 E2g2|
b3e agfe b3e g3b|a3d gfed ad3 f3a|b3e agfe b3e f3e|d3B A3F EEE2 E3g|
b3e agfe b3e g3b|a3d gfed ad3 f3a|g3b g3e f3d e3B|A3F d3F EEE2 E2:|
